X: 1
T: My pipe
N: Derived from ojibwa01.krn
C: Chippewa Songs ~ 1910
O: Red Wing, Minnesota, U.S.A
N: Chippewa Music by Frances Densmore, 1910
Z: transcribed to **kern format by Paul von Hippel and Daniel T. Shanahan
L: 1/16
M: 2/4
Q: 1/4=108
K: G clef=bass
%%linebreak <none>
D3 D [I:setbarnb 1]| 
D2> D2 D3 D | 
D4B, A,2 A, | 
A,2> A,2 A, G,2 E, [I:setbarnb 4]| 
E,4E,4 | 
E,6D D | 
D2> B,2 B,3 B, | 
A,4A, G,2 G, | 
G,2> G,2 G, E,2 E, | 
D,4D,3 D, | 
D,2> D,2 D,3 D, | 
D,4E,3 E, | 
E,2> E,2 E,3 E, | 
D,4D,3 D, | 
B,,2> B,,2 B,,3 B,, | 
G,,8 |]  
z4D D D D [I:setbarnb 17]| 
D4D B,2 A, | 



